X:78
T:St-Etienne
M:4/4
L:1/8
R:reel
K:Dmaj
f3f fgfe | dedc (3BcB A2 | e3e efed | cBAG FAde |
f3f fgfe | dedc (3BcB AA | efed cBAG |1 FABc d4 :|2 FABc d2AG |:
FdAF dBAG | FdAF dfed | ceAc eAce | ABcA (3BcBAG |
FdAF dBAG | FdAF dfed | ceAc eAce | dfec d2AG :|
